!!!OTL: O little town of Bethlehem (St. Louis)
!!!COL: Hymnal 1982
!!!COL:
**kern	**text	**text	**text	**text
*clefG2	*	*	*	*
*k[b-]	*	*	*	*
*M4/4	*	*	*	*
4r	.	.	.	.
4r	.	.	.	.
4r	.	.	.	.
4a	O	For	How	O
=1	=1	=1	=1	=1
4a	lit-	Chirst	si-	ho-
4a	tle	is	lent-	ly
4g#	town	born	ly,	Child
4a	of	of	how	of
=2	=2	=2	=2	=2
4cc	Beth-	Ma-	si-	Beth-
4b-	le-	.	lent-	le-
4d	hem,	ry,	ly,	hem,
4g	how	and	the	de-
=	=	=	=	=
4f	still	gath-	won-	scend
8Le	we	ered	drous	to
8Jf	.	.	.	.
4g	see	all	gift	us,
4c	thee	a-	is	we
=	=	=	=	=
2.a	lie;	lie;	given;	pray;
4a	a-	while	so	cast
=	=	=	=	=
4a	bove	mor-	God	out
4a	thy	tals	im-	our
4dd	deep	sleep,	parts	sin,
4cc	and	the	to	and
=	=	=	=	=
4cc	dream-	an-	hu-	en-
4b-	less	gels	man	ter
4d	sleep	keep	hears	in,
4g	the	their	the	be
=	=	=	=	=
4f	si-	watch	bless-	born
8Le	lent	of	ings	in
8Jf	.	.	.	.
4a	stars	won-	of	us
4g	go	dering	his	to-
=	=	=	=	=
2.f	by.	love.	heaven.	day.
4a	Yet	O	No	We
=	=	=	=	=
4a	in	morn-	ear	hear
4a	the	ing	may	the
4g	dark	stars	hear	Christ-
4f	streets	to-	his	mas
=	=	=	=	=
2e	shin-	geth-	com-	an-
4e	eth	er,	ing,	gels
4e	the	pro-	but	the
=	=	=	=	=
4d	ev-	claim	in	great
4e	er-	the	this	glad
4f	last-	ho-	world	tid-
4g	ing	ly	of	ings
=	=	=	=	=
2.a	light;	birth;	sin,	tell;
4a	the	and	where	O
=	=	=	=	=
4a	hopes	prais-	meek	come
4a	and	es	souls	to
4g#	fears	sing	will	us,
4a	of	to	re-	a-
=	=	=	=	=
4cc	all	God	ceive	bide
4b-	the	the	him,	with
4d	years	King,	still	us,
4dd	are	and	the	our
=	=	=	=	=
4cc	met	peace	dear	Lord
4f	in	to	Chirst	Em-
4.a	thee	all	en-	man-
8g	to-	on	ters	u-
=	=	=	=	=
2.f	night.	earth!	in.	el!
==	==	==	==	==
